src/images/svg/symbols/markets-stocks-and-indices/american-stocks/stocks-twitter.svg

<svg width="32" height="32" viewBox="0 0 32 32" fill="none" xmlns="http://www.w3.org/2000/svg">
<path d="M0 16C0 7.16344 7.16344 0 16 0C24.8366 0 32 7.16344 32 16C32 24.8366 24.8366 32 16 32C7.16344 32 0 24.8366 0 16Z" fill="#60AADD"/>
<path d="M26 9.96081C25.2498 10.2844 24.4557 10.495 23.6437 10.5858C24.5002 10.0727 25.1418 9.26672 25.45 8.31706C24.655 8.79755 23.7843 9.13989 22.875 9.32956C22.314 8.71836 21.581 8.29144 20.7726 8.10501C19.9642 7.91859 19.1183 7.98141 18.3463 8.28521C17.5743 8.589 16.9124 9.11952 16.4478 9.80688C15.9832 10.4942 15.7378 11.3062 15.7437 12.1358C15.7437 12.4513 15.7793 12.7658 15.85 13.0733C14.2188 12.9906 12.6232 12.5662 11.1665 11.8276C9.70981 11.0891 8.42447 10.0527 7.39375 8.78581C6.8663 9.68612 6.70196 10.7537 6.93421 11.7709C7.16646 12.7882 7.77783 13.6786 8.64375 14.2608C7.98634 14.2452 7.34269 14.0693 6.76875 13.7483V13.8046C6.76874 14.7509 7.0961 15.6681 7.69531 16.4006C8.29451 17.1331 9.12866 17.6358 10.0562 17.8233C9.70383 17.9191 9.34021 17.9674 8.975 17.9671C8.71724 17.9664 8.46003 17.9434 8.20625 17.8983C8.46828 18.7128 8.97857 19.4249 9.66561 19.9349C10.3526 20.4448 11.182 20.7271 12.0375 20.7421C10.5856 21.8841 8.79094 22.5029 6.94375 22.4983C6.62836 22.4972 6.31329 22.4784 6 22.4421C7.87481 23.6487 10.0579 24.2889 12.2875 24.2858C19.8375 24.2858 23.9625 18.0358 23.9625 12.6108C23.9625 12.4358 23.9625 12.2608 23.9625 12.0796C24.7629 11.5009 25.453 10.7832 26 9.96081Z" fill="white"/>
</svg>

<svg width="32" height="32" fill="none" xmlns="http://www.w3.org/2000/svg"><path d="M0 16C0 7.163 7.163 0 16 0s16 7.163 16 16-7.163 16-16 16S0 24.837 0 16Z" fill="#60AADD"/><path d="M26 9.96a8.27 8.27 0 0 1-2.356.626 4.131 4.131 0 0 0 1.806-2.269 8.225 8.225 0 0 1-2.575 1.013 4.106 4.106 0 0 0-7.131 2.806c0 .315.035.63.106.937a11.662 11.662 0 0 1-8.456-4.287 4.1 4.1 0 0 0 1.25 5.475 4.037 4.037 0 0 1-1.875-.513v.057a4.1 4.1 0 0 0 3.287 4.018 4.108 4.108 0 0 1-1.081.144c-.258 0-.515-.024-.769-.069a4.1 4.1 0 0 0 3.832 2.844A8.206 8.206 0 0 1 6 22.442a11.588 11.588 0 0 0 6.287 1.844c7.55 0 11.675-6.25 11.675-11.675v-.531A8.259 8.259 0 0 0 26 9.96Z" fill="#fff"/></svg>
